X: 3
T: The Blackhaired Lass
R: reel
M: 4/4
L: 1/8
K: Ador
AB|:cBAB cdec|d2 gd BGGB|cBAB cdec|dfe^c A3B|
cBAB cdec|d2 gd BGGB|cBAB cdec|dfe^c A2||
|(3B^cd ef g3e|f3d gfed|(3B^cd ef g3e|fdec A2 A2|
|(3B^cd ef gfeg|f3d g2 fg|(3agf ge fde^c|dfe^c A2 AB||


Tune 237	Setting 237

